!!!OTL: Der Hammerschmiedssohn
!!!OTL-incipit:Es war ein wilder Wassermann,
!!!ARE: Europa, Mitteleuropa, Deutschland (), Brandenburg, bei Oderberg
!!!YOR: 4, S. 360
!!    ????
!!!SCT: Q1088I
!!!TXL: @@DE
!!!YEM: Copyright 1995, estate of Helmut Schaffrath.
**kern	**text
*ICvox	*
*M2/4	*
*k[b-]	*
*F:	*
!LO:TX:a:t='Mäßig.	!
!LO:TX:a:t='Wassermanns Frau' Brandenburg	!
{8c	Es
=1	=1
8f	war
8f	ein
8g	wil-
8b-	-der
=2	=2
8a	Waſ-
16aL	-ſer-
16gJ	.
8f}	-mann,
{16g	von
16g	der
=3	=3
8a	Burg
8g	bis
8f	ü-
16e	-ber
16g	die
=4	=4
8d^L	See,
8cJ	.
8r}	.
{8c	der
=5	=5
16f	wollte
16f	.
16a	Königs
16a	.
[16cc	Tochter
16cc]	.
8f	.
=6	=6
8eL	ha-
8gJ	.
8b-;}	-ben,
{8cc	die
=7	=7
8a	ſchö-
8a	-ne
16b-	An-
16b-	-ne
8e	Ma-
=8	=8
4f;	-rie.
8r}	.
==	==
!!!AGN: ???
!! Melodievergleich zu Q0088B, anderes Lied "Wassermanns Frau" .
!!!ONB: ESAC (Essen Associative Code) Database: BALLADE
!!!AMT: simple duple
!!!AIN: vox
!!!EED: Helmut Schaffrath
!!!EEV: 1.0
!!!source: Deutsche Volkslieder mit ihren Melodien. Herausgegeben vom Deutschen Volksliedarchiv. Vierter Band. Berlin 1959.
!!!page: 360
!!!ENC: Anna Maria Matuszewska
!!!EEV: 2025/02/27
*-	*-
